X: 17329
T: Hiding Daylight In Dark Corners
R: reel
M: 4/4
K: Edorian
B2AF E2GE|F2ED FAAc|B2AF E2dB|c2BA BEED|
B2AF E2GE|FD~D2 FAAc|B2AF E2dB|c2BA BEED||
defd e2fe|~e2fe dB~B2|defd e2fe|dBAd BEEA|
defd e3f|efec dBBA|~g3a fdec|dBAF E2FA||

